X: 18277
T: Humours Of Scarriff, The
R: reel
M: 4/4
K: Ddorian
d3e f2ed|cAGc AcGc|Adde fded|cAGE EDDA|
d3e f2ed|cAGc AcGc|Adde fded|cAGE EDD2||
ecgc acgc|ecgc eaag|ecgc acgc|edcd edd2|
ecgc acgc|ecgc eaag|abag efed|cAGE EDD2||

